X:1
T:Nunc dimittis - des Prez
T:James Gibb editions
T:#
%%score [ 1 2 3 4 ]
L:1/8
Q:1/4=180
M:none
K:C
V:1 treble nm="Soprano" snm="S"
V:2 treble nm="Alto" snm="A"
V:3 treble-8 nm="Tenor" snm="T"
V:4 bass nm="Bass" snm="B"
V:1
"^Josquin des Prez\n(c.1450-1521)""^Nunc dimittis" z16 | z16 | z16 | z16 | z16 | z16 | z16 | z16 | %8
w: ||||||||
 z16 | z16 | z16 | z16 | F12 F4 | F8 D8 | A12 A4 | A8 F8 | (c6 d2 e4 f4- | f4 e2 d2 c4 F2 G2 | %18
w: ||||Nunc di-|mit- tis|ser- vum|tu- um|Do\- * * *||
 A2 B2 c2 A2) _B8 | A8 z4 D4 | F8 D4 F4- | F2 G2 A4 D4 (F4- | F2 G2 A2 B2 c2 d2 e4- | %23
w: * * * * mi-|ne se-|cun- dum ver\-|* bum tu- um in||
 e2 d2) (d8 ^c4) | d16 | z16 | z16 | z16 | z16 | A16 | B4 A4 d8 | c4 F8 E4 | (D6 E2 F2 G2 A4 | %33
w: * * pa\- *|ce:|||||qui-|a vi- de-|runt o- cu-|li * * * *|
 D4) (A6 B2 c4 | d8 B8 | A6 B2 c2 A2 c4- | c2 B2 G4 A8) | D8 z8 | z16 | z4 c8 c4 | B8 c8 | %41
w: * me\- * *||||i,||sa- lu-|ta- re|
 (d4 A6 B2 c2 d2 | e4 d8 c4 | d4 A6 B2 c2 d2 | e4 d8 c4) | d16- | d16 | d16 | z8 d8 | %49
w: tu\- * * * *||||um|||sa-|
 d4 (d6 c2 B2 A2) | G4 (A8 ^G4) | A8 c8- | c8 B8 | A16 | G16- | G16 | z16 | z16 | z16 | z16 | %60
w: lu- ta\- * * *|re tu\- *|um, quod|* pa-|ra-|sti||||||
 z4 E4 B8 | c8 B8 | A4 c6 c2 B4 | d8 c8 | (B6 G2 A4 B4 | E6 F2 G4 A4 | F4 G4) F8 | z16 | z16 | %69
w: an- te|fa- ci-|em o- mni- um|po- pu-|lo\- * * *||* * rum,|||
 A6 B2 c4 (d4 | A4 d8 ^c4) | d16- | d16 | (c6 B2) (A4 G4) | F8 E8 | z16 | z16 | z16 | d8 c4 A4 | %79
w: po- * pu- lo\-||rum,||po\- * pu\- *|lo- rum:||||lu- men ad|
 B4 c4 A4 B4 | (c6 B2 A4) G4 | F8 E8 | D4 A4 A4 B4 | c8 B4 c4 | (d2 c2 B2 A2 c4) (B4- | %85
w: re- ve- la- ti-|o\- * * nem|gen- ti-|um, et glo- ri-|am ple- bis|tu\- * * * * ae|
 B2 A2) A8 ^G4 | A8 z8 | z16 | z16 | z16 | z4 A4 A4 A4 | B8 G8 | G4 c8 B4 | c8 z8 | z16 | z16 | %96
w: * * Is- ra-|el,||||Glo- ri- a|Pa- tri|et Fi- li-|o,|||
 z4 G4 A4 c4 | (B8 A4 c4) | A4 (c6 B2 A4 | G6 F2 E8) | D8 z4 (c4 | A4) c6 B2 A4 | (G6 F2) E8 | %103
w: et Spi- ri-|tu\- * *|i san\- * *||cto, et|* Spi- ri- tu-|i * san-|
 D16 | z8 F8- | F4 F4 F8 | D8 A8- | A4 A4 A8 | F8 (A8 | G4 F4) G8 | F8 z8 | A16 | A8 A8 | %113
w: cto.|Nunc|* di- mit-|tis ser\-|* vum tu-|um Do\-|* * mi-|ne,|se-|cun- dum|
 (B12 G4) | G16 | (A16 | F6 G2 A4 _B4- | B2 A2 G2 F2 G2 F2 E2 D2 | C6 D2 E4)[Q:1/4=178] F4 | %119
w: ver\- *|bum|tu\-|||* * * um|
[Q:1/4=174] E4[Q:1/4=170] (A6[Q:1/4=166] G2[Q:1/4=164] F4 | %120
w: in pa\- * *|
[Q:1/4=161] E2[Q:1/4=160] D2[Q:1/4=156] D8[Q:1/4=151] ^C4) |[Q:1/4=150] D16 |] %122
w: |ce.|
V:2
 z16 | z16 | z16 | z16 | z16 | z16 | z16 | z16 | z16 | z16 | z16 | z16 | z16 | z8 F8- | F4 F4 F8 | %15
w: |||||||||||||Nunc|* di- mit-|
 D8 A8- | A4 A4 A8 | F8 A8- | A8 G8 | F16 | z4 D4 F8 | D4 F6 G2 A4 | (D4 F8) E4 | (G8 E8) | D16 | %25
w: tis ser\-|* vum tu-|um Do\-|* mi-|ne,|se- cun-|dum ver- bum tu-|um * in|pa\- *|ce:|
 z16 | z16 | z16 | z16 | z16 | z8 D8 | E4 D4 G8 | F16 | z4 F8 E4 | D4 (F8 E4) | F16 | z16 | z16 | %38
w: |||||qui-|a vi- de-|runt|o- cu-|li me\- *|i|||
 z4 F8 F4 | E8 F8 | (G6 F2 E2 D2 E4 | D4 F8 E2 D2 | C4 D4 E8) | D8 z8 | z16 | z4 (D6 E2) (F2 G2) | %46
w: sa- lu-|ta- re|tu\- * * * *|||um,||sa\- * lu\- *|
 (A4 G8 F4) | G4 (D6 E2) (F2 G2) | (A4 G8 F4 | G6) D2 (F8 | E4 D4 E8) | C8 E8- | E8 E8 | (C8 D8) | %54
w: ta\- * *|re, sa\- * lu\- *|ta\- * *|* re tu\-||um, quod|* pa-|ra\- *|
 E16- | E16 | E16 | z16 | z16 | z16 | z16 | z4 A,4 E8 | F8 E8 | D4 F6 F2 E4 | G8 F4 (E4- | %65
w: sti|||||||an- te|fa- ci-|em o- mni- um|po- pu- lo\-|
 E4 C4 D4 F4- | F4 E6 D2 D4) | E16- | E8 E8 | z4 F4 E4 (F4- | F4 E2 D2 E8 | D6 E2 F2 G2 A4- | %72
w: ||rum||po- pu- lo\-|||
 A4 G2 F2 G8 | A4 A,2 B,2 C2 D2 E4- | E4 D4) E8- | E8 z8 | z16 | z8 G8 | F4 D4 E4 F4 | %79
w: ||* * rum:|||lu-|men ad re- ve-|
 D4 E4 F4 D4 | (E4 A,2 B,2 C2 D2 E4- | E4 D8) ^C4 | D4 F4 F4 F4 | G8 G8 | F8 (E4 F4- | F4) E4 D8 | %86
w: la- ti- o- nem|gen\- * * * * *|* * ti-|um, et glo- ri-|am ple-|bis tu\- *|* ae Is-|
 C4 D8 E4 | F8 E4 F4 | (G2 F2) (E2 D2) (F4 E4- | E2) D2 D8 ^C4 | D8 z4 D4 | D4 D4 E8 | %92
w: ra- el, et|glo- ri- am|ple\- * bis * tu\- *|* ae Is- ra-|el. Glo-|ri- a Pa-|
 C4 E4 D4 D4 | (C6 D2) E4 (F4- | F4 E2 D2 G8- | G4 F2 E2) F8 | E8 z4 C4 | D4 E4 (F8- | %98
w: tri, et Fi- li-|o, * et Fi\-||* * * li-|o. et|Spi- ri- tu\-|
 F4 E2 D2) C4 (F4 | E4 D8 ^C4) | D8 z8 | z16 | z16 | F12 F4 | F8 D8 | A12 A4 | A8 F8 | %107
w: * * * i san\-||cto,|||Nunc di-|mit- tis|ser- vum|tu- um,|
 z4 (F6 E2) C4 | (D6 C2 A,2 B,2 C2 D2) | E4 F8 E4 | F16 | z8 F8- | F8 F8 | D16 | E16 | A,8 (F8- | %116
w: ser\- * vum|tu\- * * * * *|um Do- mi-|ne.|se\-|* cun-|dum|ver-|bum tu\-|
 F4 D4 F8) | E16 | z8 (C6 D2 | E4 F4 E4) (A4- | A4 G2 F2 E8) | D16 |] %122
w: |um|in *|* * * pa\-||ce.|
V:3
 F12 F4 | F8 D8 | A12 A4 | A8 F8 | (c6 d2 e4 f4- | f4 e2 d2 c4 F2 G2 | A2 B2 c2 A2) _B8 | %7
w: Nunc di-|mit- tis|ser- vum|tu- um|Do\- * * *||* * * * mi-|
 A8 z4 D4 | F8 D4 F4- | F2 G2 A4 D4 (F4- | F2 G2 A2 B2 c2 d2 e4- | e2 d2) (d8 ^c4) | d16- | d16 | %14
w: ne, se-|cun- dum ver-|* bum tu- um in||* * pa\- *|ce:||
 d16 | d16 | z16 | z16 | z16 | z16 | z16 | z16 | z16 | z8 A8 | B4 G4 d8 | c4 f8 e4 | %26
w: |||||||||qui-|a vi- de-|runt o- cu-|
 d4 (c6 B2 A4- | A4 G2 F2 G4) F4 | f8 e4 (d4- | d4 c2 B2) A4 D4 | d16 | z16 | z16 | %33
w: li me\- * *|* * * * i,|o- cu- li|* * * me\- *|i,|||
 (D6 E2) (F2 G2) A4 | (_B6 A2 G8) | F8 z8 | z4 c8 c4 | B8 c8 | (d6 c2 B2 A2 B4 | c6 B2 A2 G2 A4) | %40
w: o\- * cu\- * li|me\- * *|i,|sa- lu-|ta- re|tu\- * * * *||
 G8 z8 | (D8 A8- | A4) _B4 A8 | F4 (f8 e4 | c4 d4 e8 | d8) G4 d4- | d4 B4 (A8 | G6 A2 B2 c2 d4- | %48
w: um,|sa\- *|* lu- ta-|re tu\- *||* um, sa\-|* lu- ta\-||
 d4 B4 A8) | G8 (d6 c2 | B4 A4 B8) | A8 A8- | A8 G8 | A16 | B16 | z4 E4 B8 | c8 B8 | A4 c6 c2 B4 | %58
w: |re tu\- *||um, quod|* pa-|ra-|sti|an- te|fa- ci-|em o- mni- um|
 d8 c8 | (B6 G2 A2 B2 c4 | B4 A8 ^G4) | A8 z8 | z16 | z16 | z16 | z16 | z16 | z4 c4 B4 (c4- | %68
w: po- pu-|lo\- * * * *||rum,||||||po- pu- lo\-|
 c4 B2 A2 B8 | A16- | A16 | A16) | D16 | z16 | d8 c4 A4 | B4 c4 A4 B4 | c4 d8 (e4- | %77
w: ||||rum:||lu- men ad|re- ve- la- ti-|o- nem gen\-|
 e2 d2 d8) ^c4 | d8 z8 | z16 | z16 | z16 | z4 d4 d4 d4 | e8 e8 | d8 c4 d4 | A4 c4 B8 | %86
w: * * * ti-|um,||||et glo- ri-|am ple-|bis tu- ae|Is- ra- el,|
 z4 A4 A4 B4 | c8 c8 | B8 A8 | A4 A8 G4 | A16 | z16 | z16 | z4 A4 A4 A4 | B8 G8 | G4 c8 B4 | c16 | %97
w: et glo- ri-|am ple-|bis tu-|ae Is- ra-|el.|||Glo- ri- a|Pa- tri|et Fi- li-|o,|
 z8 z4 A4- | A4 A4 A4 F4 | G8 (A8 | D6 E2 F2 G2 A2 B2 | c6 d2 e4 f4 | e4 d8 ^c4) | d16- | d16 | %105
w: et|* Spi- ri- tu-|i san\-||||cto.||
 d16 | d16 | z16 | z16 | z8 c8- | c8 c8 | c8 c8 | c8 (d8- | d4 B4) B8 | B8 (c8- | c4 A4) A8- | %116
w: ||||se\-|* cun-|dum ver-|bum tu\-|* * um|in pa\-|* * ce,|
 A8 d8 | (c6 A2 B8) | A16- | A16 | A16 | A16 |] %122
w: * in|pa\- * *|ce.||||
V:4
 z16 | z8 F,8- | F,4 F,4 F,8 | D,8 A,8- | A,4 A,4 A,8 | F,8 A,8- | A,8 G,8 | F,16 | z4 D,4 F,8 | %9
w: |Nunc|* di- mit-|tis ser\-|* vum tu-|um Do\-|* mi-|ne,|se- cun-|
 D,4 F,6 G,2 A,4 | (D,4 F,8) E,4 | (G,8 E,8) | D,16- | D,16 | D,16 | D,16 | z16 | z16 | z16 | z16 | %20
w: dum ver- bum tu-|um * in|pa\- *|ce:||||||||
 z16 | z16 | z16 | z16 | D,16 | E,4 D,4 G,8 | F,8 C8- | C4 C4 B,4 (A,4- | A,4 G,2 F,2 G,8) | %29
w: ||||qui-|a vi- de-|runt o\-|* cu- li me\-||
 D,16- | D,16 | z16 | z16 | z16 | z16 | z4 F,8 F,4 | E,8 F,8 | (G,6 F,2 E,2 D,2 E,4) | D,16 | z16 | %40
w: i||||||sa- lu-|ta- re|tu\- * * * *|um,||
 z16 | z16 | z16 | (D,8 A,8- | A,4) _B,4 A,8 | D,8 z4 D,4 | F,4 G,4 D,8 | z8 z4 D,4 | F,4 G,4 D,8 | %49
w: |||sa\- *|* lu- ta-|re, sa-|lu- ta- re,|sa-|lu- ta- re|
 z8 z4 (D,4 | E,4 F,4 E,8) | A,,8 A,,8- | A,,8 E,8 | F,16 | E,16- | E,16 | z4 A,,4 E,8 | F,8 E,8 | %58
w: tu\-||um, quod|* pa-|ra-|sti||an- te|fa- ci-|
 D,4 F,6 F,2 E,4 | G,8 F,4 (E,4- | E,4 D,2 C,2 B,,8) | A,,8 z8 | z16 | z16 | z16 | C8 B,4 (A,4- | %66
w: em o- mni- um|po- pu- lo\-||rum,||||po- pu- lo\-|
 A,4 G,4 A,4 B,4 | E,6 F,2 G,4 A,4 | E,4 A,8 ^G,4) | A,8 A,4 (D,4- | D,4 C,2 B,,2 A,,8) | %71
w: |||rum, po- pu\-||
 (D,12 C,4 | B,,6 A,,2 B,,8) | A,,8 z8 | z8 A,8 | G,4 E,4 F,4 G,4 | E,4 F,4 G,8 | D,4 F,4 E,8 | %78
w: lo\- *||rum:|lu-|men ad re- ve-|la- ti- o-|nem gen- ti-|
 D,8 z8 | z16 | z16 | z16 | z16 | z16 | z16 | z16 | F,8 F,4 G,4 | A,8 A,8 | G,8 F,4 G,4 | %89
w: um,||||||||et glo- ri-|am ple-|bis tu- *|
 D,4 F,4 E,8 | D,16 | z16 | z16 | z8 D,8 | D,4 D,4 E,8 | C,4 E,4 D,4 D,4 | C,4 C8 B,2 A,2 | %97
w: ae Is- ra-|el.|||Glo-|ri- a Pa-|tri et Fi- li-|o, et Fi *|
 G,8 F,8- | F,8 z8 | z16 | z8 A,8- | A,4 A,4 A,4 F,4 | G,8 A,8 | D,16- | D,16 | D,16 | D,16 | z16 | %108
w: li- o,|||et|* Spi- ri- tu-|i san-|cto.|||||
 z16 | z16 | F,16 | F,8 F,8 | F,8 F,8 | (G,12 E,4) | E,8 E,8 | (F,16 | D,16 | E,16 | A,,16- | %119
w: ||se-|cun- dum|ver- bum|tu\- *|um in|pa\-||||
 A,,16 | A,,16) | D,16 |] %122
w: ||ce.|

